X:1
T:Himno a la Alegria
T:Himno a la Alegria
T:L. van Beethoven    
T:©Copyright m474 - 2013
C:L. van Beethoven
Z:All Rights Reserved
L:1/4
M:4/4
K:D
V:1 treble nm="P1"
V:1
 F F G A | A G F E | D D E F | F3/2 E/ E2 | F F G A | A G F E | D D E F | E3/2 D/ D2 |: E E F D | %9
 E F/G/ F D | E F/G/ F E | D E A, F- | F F G A | A G F G/E/ | D D E F | E3/2 D/ D2 :| %16

